X:18973
T:Xiraldilla (CT 095)
R:Xiraldilla
C:Tradicional
S:Música Tradicional Asturiana, (C) Tello & Tito. Asturies, 2001.
S:http://pagina.de/MusTradAst <telloytito@asturies.org>
N:Xiraldilla, transcrita en Uviéu.
O:Uviéu
A:Asturies
Z:Cancioneru de Torner 095
M:3/8
L:1/8
Q:3/8=88
W:Aquella panadera
W:que va por allí,
W:yo la llamo, la llamo
W:y no quiere venir.
W:¡Ai, qué panadera!
W:¡Ai, qué panaderilla,
W:l'alma me lleva!
K:C
|d2 d|d_ed|cBd|cBc|d3|
d2 d|d_ed|cBd|cBA|G3|
B2 d|cBA|G3|B2 c|d_ed|cBd|cBA|G3||


